teeny/outline/school.svg

<svg width="15" height="15" viewBox="0 0 15 15" fill="none" xmlns="http://www.w3.org/2000/svg">
<path d="M7.5 4.5L11.5 6.5V14.5H3.5V6.5L7.5 4.5ZM7.5 4.5V0M0 14.5H15M1.5 14.5V8.5H3.5M13.5 14.5V8.5H11.5M6.5 14.5V11.5H8.5V14.5M7.5 0.5H10.5V2.5H7.5M7.5 9.5C6.94772 9.5 6.5 9.05228 6.5 8.5C6.5 7.94772 6.94772 7.5 7.5 7.5C8.05228 7.5 8.5 7.94772 8.5 8.5C8.5 9.05228 8.05228 9.5 7.5 9.5Z" stroke="black"/>
</svg>

<svg viewBox="0 0 15 15" xmlns="http://www.w3.org/2000/svg"><path fill="none" stroke="#000" d="M7.5 4.5l4 2v8h-8v-8l4-2Zm0 0V0M0 14.5h15m-13.5 0v-6h2m10 6v-6h-2m-5 6v-3h2v3m-1-14h3v2h-3m0 7c-.56 0-1-.45-1-1 0-.56.44-1 1-1 .55 0 1 .44 1 1 0 .55-.45 1-1 1Z"/></svg>
